COLOR/action 16/16/zoom-original.svg

<svg height="16" width="16" xmlns="http://www.w3.org/2000/svg"><g stroke-width="2.040179"><path d="m4 4.4940003c.3475546-.14.7075962-.294 1.082206-.4680001.3829344-.184.7554631-.38 1.1155047-.588a17.065557 16.400001 0 0 0 1.0280957-.676c.3350676-.242.6368367-.496.9011447-.7620001h1.8730489v11.9999999h-2.0811654v-9.3039997c-.9323622.694-2.1061395 1.132-3.1092613 1.5240001z" fill="#1a7fd4"/><path d="m8.1269531 2c-.264308.2660001-.565323.5197188-.9003906.7617188a17.065557 16.400001 0 0 1 -1.0292969.6757812c-.3600416.208-.7323.4038906-1.1152344.5878906-.3746098.1740001-.7344766.32875-1.0820312.46875l.1953125.4160156c.2886389-.1190567.5796488-.2421366.8867187-.3847656.3829344-.184.7551928-.3798906 1.1152344-.5878906a17.065557 16.400001 0 0 0 1.0292969-.6757812c.3350676-.242.6360826-.4957187.9003906-.7617188h1.8730469v-.5z" fill="#fff" opacity=".3"/><path d="m7.9179688 4.1953125c-.9323623.694-2.1043001 1.1333905-3.1074219 1.5253906l-.6152344-1.3105469c-.063486.0261865-.1326505.0587433-.1953125.0839844l.8105469 1.7265625c1.0031218-.3920001 2.1750596-.8313906 3.1074219-1.5253906zm0 9.3046875v.5h2.0820312v-.5z" opacity=".2"/></g></svg>

<?xml version="1.0" encoding="UTF-8" standalone="no"?>
<svg
   xmlns:dc="http://purl.org/dc/elements/1.1/"
   xmlns:cc="http://creativecommons.org/ns#"
   xmlns:rdf="http://www.w3.org/1999/02/22-rdf-syntax-ns#"
   xmlns:svg="http://www.w3.org/2000/svg"
   xmlns="http://www.w3.org/2000/svg"
   xmlns:sodipodi="http://sodipodi.sourceforge.net/DTD/sodipodi-0.dtd"
   xmlns:inkscape="http://www.inkscape.org/namespaces/inkscape"
   height="16"
   width="16"
   version="1.1"
   id="svg4"
   sodipodi:docname="zoom-original.svg"
   inkscape:version="0.92.4 (5da689c313, 2019-01-14)">
  <metadata
     id="metadata10">
    <rdf:RDF>
      <cc:Work
         rdf:about="">
        <dc:format>image/svg+xml</dc:format>
        <dc:type
           rdf:resource="http://purl.org/dc/dcmitype/StillImage" />
      </cc:Work>
    </rdf:RDF>
  </metadata>
  <defs
     id="defs8" />
  <sodipodi:namedview
     pagecolor="#ffffff"
     bordercolor="#666666"
     borderopacity="1"
     objecttolerance="10"
     gridtolerance="10"
     guidetolerance="10"
     inkscape:pageopacity="0"
     inkscape:pageshadow="2"
     inkscape:window-width="1920"
     inkscape:window-height="1016"
     id="namedview6"
     showgrid="false"
     inkscape:zoom="14.75"
     inkscape:cx="8"
     inkscape:cy="8"
     inkscape:window-x="0"
     inkscape:window-y="27"
     inkscape:window-maximized="1"
     inkscape:current-layer="svg4" />
  <path
     d="m 4,4.4940003 c 0.3475546,-0.14 0.7075962,-0.294 1.082206,-0.4680001 0.3829344,-0.184 0.7554631,-0.38 1.1155047,-0.588 a 17.065557,16.400001 0 0 0 1.0280957,-0.676 c 0.3350676,-0.242 0.6368367,-0.496 0.9011447,-0.7620001 H 10 V 14 H 7.9188346 V 4.6960003 c -0.9323622,0.694 -2.1061395,1.132 -3.1092613,1.5240001 z"
     id="path2"
     inkscape:connector-curvature="0"
     style="fill:#1a7fd4;stroke-width:2.04017901" />
  <path
     style="fill:#ffffff;stroke-width:2.04017901;fill-opacity:1;opacity:0.3"
     d="M 8.1269531 2 C 7.8626451 2.2660001 7.5616301 2.5197188 7.2265625 2.7617188 A 17.065557 16.400001 0 0 1 6.1972656 3.4375 C 5.837224 3.6455 5.4649656 3.8413906 5.0820312 4.0253906 C 4.7074214 4.1993907 4.3475546 4.3541406 4 4.4941406 L 4.1953125 4.9101562 C 4.4839514 4.7910995 4.7749613 4.6680196 5.0820312 4.5253906 C 5.4649656 4.3413906 5.837224 4.1455 6.1972656 3.9375 A 17.065557 16.400001 0 0 0 7.2265625 3.2617188 C 7.5616301 3.0197188 7.8626451 2.7660001 8.1269531 2.5 L 10 2.5 L 10 2 L 8.1269531 2 z "
     id="path817" />
  <path
     style="fill:#000000;stroke-width:2.04017901;fill-opacity:1;opacity:0.2"
     d="M 7.9179688 4.1953125 C 6.9856065 4.8893125 5.8136687 5.328703 4.8105469 5.7207031 L 4.1953125 4.4101562 C 4.1318265 4.4363427 4.062662 4.4688995 4 4.4941406 L 4.8105469 6.2207031 C 5.8136687 5.828703 6.9856065 5.3893125 7.9179688 4.6953125 L 7.9179688 4.1953125 z M 7.9179688 13.5 L 7.9179688 14 L 10 14 L 10 13.5 L 7.9179688 13.5 z "
     id="path822" />
</svg>
